X:20
T:Sprowston (Lodge)
S:John Moore's Book 3
Z:Transcribed by Steve Mansfield 05/2021
%%VWML: Moore1-4495-p18-0
F:https://www.vwml.org/record/Moore3/4495/p18
M:C|
L:1/4
K:G
V:1
d2dd | (dc)B2 | AG F2 | G4 | 
A2GB | d2G2 | A4 ||
B2(AA) | (Bc)d2 | d2d2 | Hd2!p!e2 | 
ddcc | "cres"B2c2 | BGAF | G2A2 | 
(dcB)c | B2A2 | B4 |]
V:2 
g2ff | g2g2 | e2d2 | d4 | 
f2gg | d2e2 | f4 ||
g2ff | g2gb | a2 g2 | Hf2z2 | 
z4 | z4 | z4 | z2f2 | 
g3g | g2d2 | d4 |] 
V:3
"Air"
G2AA | Bcd2 | (cB)A2 | G4 | 
w:Com fa-ther son*and holy* ghost
d2cB | A2(B^c) | d4 ||
d2dd | (dc)(Bd) | c2B2 | HB2A2 | 
BGAF | G2e2 | dBcA | B2A2 | 
Bcde | d2F2 | G4 |]
V:4 clef=bass middle=d
g2dd | g2g2 | c^cd2 | G4 | 
d2eg | f2e2 | d4 ||
g2dd | g2g2 | f2g2 | Hd2c2 | 
GBcd | e2c2 | ggdd | g2d2 | 
g3c | d2d2 | g4 |] 

